tools/download-figma-icons/icons/outlined-large/together.svg

<svg width="65" height="64" viewBox="0 0 65 64" fill="none" xmlns="http://www.w3.org/2000/svg">
<path fill-rule="evenodd" clip-rule="evenodd" d="M25.1578 18.525L24.0548 23.001H40.0308L38.9188 18.522C38.4078 16.448 36.5348 15.001 34.3678 15.001H29.7088C27.5388 15.001 25.6668 16.45 25.1578 18.525ZM36.5768 7.5C36.5768 5.019 34.5588 3 32.0768 3C29.5958 3 27.5768 5.019 27.5768 7.5C27.5768 9.981 29.5958 12 32.0768 12C34.5588 12 36.5768 9.981 36.5768 7.5ZM41.8308 17.802L42.9388 22.281C43.1608 23.184 42.9608 24.119 42.3878 24.851C41.8158 25.582 40.9548 26.001 40.0268 26.001H24.0558C23.1278 26.001 22.2668 25.582 21.6948 24.852C21.1218 24.121 20.9208 23.186 21.1418 22.284L22.2438 17.809C22.8278 15.436 24.4968 13.582 26.6448 12.655C25.3668 11.311 24.5768 9.497 24.5768 7.5C24.5768 3.364 27.9418 0 32.0768 0C36.2128 0 39.5768 3.364 39.5768 7.5C39.5768 9.51 38.7788 11.333 37.4878 12.681C39.6058 13.614 41.2508 15.452 41.8308 17.802ZM46.1646 56.5045L45.0616 60.9805H61.0366L59.9256 56.5005C59.4136 54.4275 57.5406 52.9805 55.3745 52.9805H50.7156C48.5456 52.9805 46.6735 54.4295 46.1646 56.5045ZM57.5835 45.4795C57.5835 42.9985 55.5656 40.9795 53.0835 40.9795C50.6026 40.9795 48.5835 42.9985 48.5835 45.4795C48.5835 47.9605 50.6026 49.9795 53.0835 49.9795C55.5656 49.9795 57.5835 47.9605 57.5835 45.4795ZM62.8376 55.7805L63.9445 60.2615C64.1675 61.1615 63.9676 62.0975 63.3956 62.8295C62.8236 63.5605 61.9616 63.9805 61.0326 63.9805H45.0625C44.1346 63.9805 43.2736 63.5615 42.7015 62.8325C42.1286 62.1015 41.9276 61.1665 42.1486 60.2645L43.2505 55.7885C43.8335 53.4155 45.5026 51.5615 47.6506 50.6345C46.3736 49.2905 45.5835 47.4765 45.5835 45.4795C45.5835 41.3435 48.9486 37.9795 53.0835 37.9795C57.2196 37.9795 60.5835 41.3435 60.5835 45.4795C60.5835 47.4895 59.7856 49.3125 58.4946 50.6605C60.6125 51.5935 62.2566 53.4315 62.8376 55.7805ZM3.00195 60.9805L4.10295 56.5045C4.61195 54.4295 6.48395 52.9805 8.65395 52.9805H13.313C15.481 52.9805 17.353 54.4275 17.864 56.5015L18.976 60.9805H3.00195ZM11.023 40.9795C13.505 40.9795 15.523 42.9985 15.523 45.4795C15.523 47.9605 13.505 49.9795 11.023 49.9795C8.54195 49.9795 6.52295 47.9605 6.52295 45.4795C6.52295 42.9985 8.54195 40.9795 11.023 40.9795ZM20.776 55.7815C20.196 53.4325 18.552 51.5935 16.434 50.6605C17.725 49.3125 18.523 47.4895 18.523 45.4795C18.523 41.3435 15.159 37.9795 11.023 37.9795C6.88795 37.9795 3.52295 41.3435 3.52295 45.4795C3.52295 47.4765 4.31295 49.2895 5.58995 50.6345C3.44195 51.5605 1.77295 53.4145 1.18895 55.7885L0.0889525 60.2625C-0.134048 61.1645 0.0669524 62.1005 0.638952 62.8315C1.21195 63.5615 2.07195 63.9805 3.00095 63.9805H18.972C19.9 63.9805 20.761 63.5615 21.333 62.8305C21.906 62.0985 22.106 61.1635 21.884 60.2605L20.776 55.7815ZM33.4521 39.8325L40.2071 43.7325C40.9251 44.1465 41.1701 45.0635 40.7561 45.7815C40.4781 46.2625 39.9741 46.5315 39.4561 46.5315C39.2011 46.5315 38.9431 46.4665 38.7071 46.3305L31.9521 42.4295L25.1961 46.3305C24.9601 46.4665 24.7021 46.5315 24.4471 46.5315C23.9301 46.5315 23.4251 46.2625 23.1471 45.7815C22.7331 45.0635 22.9781 44.1465 23.6961 43.7325L30.4521 39.8325V32.0315C30.4521 31.2035 31.1241 30.5315 31.9521 30.5315C32.7801 30.5315 33.4521 31.2035 33.4521 32.0315V39.8325Z" fill="black"/>
</svg>

<svg xmlns="http://www.w3.org/2000/svg" width="65" height="64" fill="none" viewBox="0 0 65 64"><path fill="currentColor" fill-rule="evenodd" d="m25.158 18.525-1.103 4.476H40.03l-1.112-4.479c-.511-2.074-2.384-3.521-4.551-3.521h-4.66c-2.17 0-4.041 1.449-4.55 3.524M36.577 7.5c0-2.481-2.018-4.5-4.5-4.5a4.505 4.505 0 0 0-4.5 4.5c0 2.481 2.019 4.5 4.5 4.5 2.482 0 4.5-2.019 4.5-4.5m5.254 10.302 1.108 4.479a2.98 2.98 0 0 1-.551 2.57 2.98 2.98 0 0 1-2.361 1.15H24.056a2.98 2.98 0 0 1-2.361-1.149 2.98 2.98 0 0 1-.553-2.568l1.102-4.475c.584-2.373 2.253-4.227 4.4-5.154A7.46 7.46 0 0 1 24.578 7.5c0-4.136 3.365-7.5 7.5-7.5 4.136 0 7.5 3.364 7.5 7.5 0 2.01-.798 3.833-2.09 5.181 2.119.933 3.764 2.771 4.344 5.121m4.334 38.703-1.103 4.475h15.975l-1.111-4.48c-.512-2.072-2.385-3.52-4.552-3.52h-4.658c-2.17 0-4.043 1.45-4.551 3.525m11.419-11.026c0-2.48-2.018-4.5-4.5-4.5-2.481 0-4.5 2.02-4.5 4.5 0 2.482 2.019 4.5 4.5 4.5 2.482 0 4.5-2.018 4.5-4.5m5.254 10.302 1.106 4.48a2.98 2.98 0 0 1-.548 2.569 2.98 2.98 0 0 1-2.363 1.15h-15.97a2.98 2.98 0 0 1-2.361-1.147 2.99 2.99 0 0 1-.553-2.568l1.102-4.477c.583-2.372 2.252-4.226 4.4-5.153a7.47 7.47 0 0 1-2.068-5.155c0-4.136 3.366-7.5 7.5-7.5 4.137 0 7.5 3.364 7.5 7.5 0 2.01-.797 3.833-2.088 5.18 2.117.934 3.762 2.772 4.343 5.12m-59.836 5.2 1.101-4.477c.509-2.075 2.381-3.523 4.551-3.523h4.659c2.168 0 4.04 1.447 4.551 3.52l1.112 4.48zm8.021-20.001c2.482 0 4.5 2.019 4.5 4.5s-2.018 4.5-4.5 4.5a4.506 4.506 0 0 1-4.5-4.5c0-2.481 2.019-4.5 4.5-4.5m9.753 14.802c-.58-2.35-2.224-4.188-4.342-5.121a7.47 7.47 0 0 0 2.089-5.181c0-4.136-3.364-7.5-7.5-7.5-4.135 0-7.5 3.364-7.5 7.5 0 1.997.79 3.81 2.067 5.155-2.148.925-3.817 2.78-4.401 5.154l-1.1 4.474a2.98 2.98 0 0 0 .55 2.569 2.98 2.98 0 0 0 2.362 1.148h15.971a2.98 2.98 0 0 0 2.361-1.15 2.98 2.98 0 0 0 .551-2.57zm12.676-15.95 6.755 3.9a1.5 1.5 0 1 1-1.5 2.599l-6.755-3.902-6.756 3.901a1.5 1.5 0 0 1-1.5-2.598l6.756-3.9v-7.8a1.5 1.5 0 0 1 3 0z" clip-rule="evenodd"/></svg>
